svg/u1f6cf.svg

<svg viewBox="0 0 128 128" xmlns="http://www.w3.org/2000/svg">
  <g>
    <path d="M27.85,109.64h-19c0,0-5.08-54.7,0-54.7s14.99,4.12,14.99,4.12c2.41,0.89,4.01,3.18,4.01,5.75 V109.64z" fill="#A65F3E"/>
    <path d="M121.91,105.43H12.98V58.99c0-2.24-1.82-4.06-4.06-4.06s-4.06,1.82-4.06,4.06v64.9h6l4.8-9.58h96.7 l4.8,9.58h6v-17.22C123.15,105.99,122.6,105.43,121.91,105.43z" fill="#C87D5E"/>
    <path d="M13.75,95.99h9.28V83.08c-2.66-0.17-5.37,0.46-7.53,2c-3.39,2.43-2.49,6.78-2.52,10.46 C12.98,95.54,13.28,95.72,13.75,95.99z" fill="#784D30"/>
    <path d="M120.46,108.37l-104.17,0.1c-1.49,0-2.91-0.78-2.91-2.32c0,0,106.53-0.77,107.74-0.77 c1.21,0,2.02,0.05,2.02,1.17C123.14,107.65,122.98,108.37,120.46,108.37z" fill="#784D30"/>
    <path d="M110.47,106.94l-95.61,0.1c-1.49,0-1.88-1.45-1.88-3.11v-7.91c0-1.15,0.84-2.09,1.87-2.09h94.73 c1.98,0,3.59,1.79,3.59,4v6C113.16,105.59,111.96,106.94,110.47,106.94z" fill="#E0F7FA"/>
    <polygon points="112.35,114.31 117.15,114.31 117.15,121.66 117.15,123.89 " fill="#784D30"/>
    <polygon points="15.65,114.31 10.85,114.31 10.85,121.66 10.85,123.89 " fill="#784D30"/>
    <path d="M27.33,93.95c-11.36,0-13.38-5.96-13.38-5.96s3.55-6.57,13.11-6.57s14.52,5.88,14.81,7.84 C42.49,93.48,38.69,93.95,27.33,93.95z" fill="#E0F7FA"/>
    <path d="M13.95,87.99c0.8,1.92,3.81,5.96,13.38,5.96c4.65,0,6.67,0,6.67,0l4.35-5.53 c0,0-2.91,1.47-11.28,1.71C21.38,90.29,16.46,89.37,13.95,87.99z" fill="#94D1E0"/>
    <path d="M118.89,107.04c2.9,0,4.56-2.83,3.92-6.02c-2.11-10.55-5.18-16.08-13.26-16.08H53.72 c-7.91,0-14.83,4-16.81,12c-0.97,3.9-1.27,6.75-1.18,10.1H118.89z" fill="#3DAAE0"/>
    <path d="M120.42,107.59c2.65,0,2.72-2.27,2.45-4.65c-0.91-8-7.65-9.41-11.24-9.41H44.8 c0,0-1.49,2.21-2.18,7.03c-0.68,4.82,0.04,7.03,0.04,7.03H120.42z" fill="#188AD6"/>
    <path d="M44.78,96.94c2-8,9-12,17-12h-12c-8,0-15,4-17,12C31.35,102.65,42.78,104.94,44.78,96.94z" fill="#B0E0FF"/>
    <path d="M43.77,107.59c-0.02-3.77,0.37-11.85,3.58-16.08c0,0-3.08-0.59-6.6-0.6c-4.16,0-5.38,0.38-5.38,0.38 c-1.4,1.78-1.96,3.15-2.58,5.65c-0.49,1.94-0.82,4.91-0.99,8.49c-0.05,1.17,0.89,2.15,2.06,2.15H43.77z" fill="#7DBBE3"/>
  </g>
</svg>

<svg viewBox="0 0 128 128" xmlns="http://www.w3.org/2000/svg">
  <defs/>
  <path d="M27.85,109.64 L8.85,109.64 C8.85,109.64 3.77,54.94 8.85,54.94 C13.93,54.94 23.84,59.06 23.84,59.06 C26.25,59.95 27.85,62.24 27.85,64.81 L27.85,109.64 Z" fill="#A65F3E"/>
  <path d="M121.91,105.43 L12.98,105.43 L12.98,58.99 C12.98,56.75 11.16,54.93 8.92,54.93 C6.68,54.93 4.86,56.75 4.86,58.99 L4.86,123.89 L10.86,123.89 L15.66,114.31 L112.36,114.31 L117.16,123.89 L123.16,123.89 L123.16,106.67 C123.15,105.99 122.6,105.43 121.91,105.43 Z" fill="#C87D5E"/>
  <path d="M13.75,95.99 L23.03,95.99 L23.03,83.08 C20.37,82.91 17.66,83.54 15.5,85.08 C12.11,87.51 13.01,91.86 12.98,95.54 C12.98,95.54 13.28,95.72 13.75,95.99 Z" fill="#784D30"/>
  <path d="M120.46,108.37 L16.29,108.47 C14.8,108.47 13.38,107.69 13.38,106.15 C13.38,106.15 119.91,105.38 121.12,105.38 C122.33,105.38 123.14,105.43 123.14,106.55 C123.14,107.65 122.98,108.37 120.46,108.37 Z" fill="#784D30"/>
  <path d="M110.47,106.94 L14.86,107.04 C13.37,107.04 12.98,105.59 12.98,103.93 L12.98,96.02 C12.98,94.87 13.82,93.93 14.85,93.93 L109.58,93.93 C111.56,93.93 113.17,95.72 113.17,97.93 L113.17,103.93 C113.16,105.59 111.96,106.94 110.47,106.94 Z" fill="#E0F7FA"/>
  <path d="M112.35,114.31 L117.15,114.31 L117.15,121.66 L117.15,123.89 Z" fill="#784D30"/>
  <path d="M15.65,114.31 L10.85,114.31 L10.85,121.66 L10.85,123.89 Z" fill="#784D30"/>
  <path d="M27.33,93.95 C15.97,93.95 13.95,87.99 13.95,87.99 C13.95,87.99 17.5,81.42 27.06,81.42 C36.62,81.42 41.58,87.3 41.87,89.26 C42.49,93.48 38.69,93.95 27.33,93.95 Z" fill="#E0F7FA"/>
  <path d="M13.95,87.99 C14.75,89.91 17.76,93.95 27.33,93.95 C31.98,93.95 34,93.95 34,93.95 L38.35,88.42 C38.35,88.42 35.44,89.89 27.07,90.13 C21.38,90.29 16.46,89.37 13.95,87.99 Z" fill="#94D1E0"/>
  <path d="M118.89,107.04 C121.79,107.04 123.45,104.21 122.81,101.02 C120.7,90.47 117.63,84.94 109.55,84.94 L53.72,84.94 C45.81,84.94 38.89,88.94 36.91,96.94 C35.94,100.84 35.64,103.69 35.73,107.04 L118.89,107.04 Z" fill="#3DAAE0"/>
  <path d="M120.42,107.59 C123.07,107.59 123.14,105.32 122.87,102.94 C121.96,94.94 115.22,93.53 111.63,93.53 L44.8,93.53 C44.8,93.53 43.31,95.74 42.62,100.56 C41.94,105.38 42.66,107.59 42.66,107.59 L120.42,107.59 Z" fill="#188AD6"/>
  <path d="M44.78,96.94 C46.78,88.94 53.78,84.94 61.78,84.94 L49.78,84.94 C41.78,84.94 34.78,88.94 32.78,96.94 C31.35,102.65 42.78,104.94 44.78,96.94 Z" fill="#B0E0FF"/>
  <path d="M43.77,107.59 C43.75,103.82 44.14,95.74 47.35,91.51 C47.35,91.51 44.27,90.92 40.75,90.91 C36.59,90.91 35.37,91.29 35.37,91.29 C33.97,93.07 33.41,94.44 32.79,96.94 C32.3,98.88 31.97,101.85 31.8,105.43 C31.75,106.6 32.69,107.58 33.86,107.58 L43.77,107.58 Z" fill="#7DBBE3"/>
</svg>
